X: 1
T:Polska fr J\"amtland
R:Polska
O:Sweden
M:3/4
A:J\"amtland
K:D
F>A G<B A2|F>A B<cd2|F>A G<B A2|F>A G<B A2::c|\
d>c BA Bc |d2cB A2|
d>c BA Bc|d2f4|\
d>c BA Bc|d2B2A2|E>F (3GEG (3FDF|(3EDC D2:|
